!!!OTL: Roth Roeslein
!!!ARE: Europa, Mitteleuropa, Deutschland
!!!SCT: A0146
!!!YEM: Copyright 1995, estate of Helmut Schaffrath.
**kern
*ICvox
*Ivox
!! Mixed meters:  4/2; 3/2
*M4/2
*k[f#]
*G:
{2gg
=1
2gg
2gg
2ee
2ee
=2
1cc
1cc
=3
*M3/2
1r}
{2gg
=4
1gg
2gg
=5
1gg
2gg
=6
1.dd
=7
1r}
{2dd
=8
1dd
2dd
=9
1cc
2cc
=10
2dd
1cc
=11
1.b}
=12
*M4/2
{1cc
2dd
[2cc
=13
2cc]
2b
1a
=14
1.g}
==
!!!AGN: Romanze, Ballade, Lied
!! Rhaw, Bicinia. 1545 Tom. I. No. 92.
!!!ONB: ESAC (Essen Associative Code) Database: ALTDEU
!!!AMT: irregular
!!!AIN: vox
!!!EED: Helmut Schaffrath
!!!EEV: 1.0
*-
